icons/svg/24x24/bookmark add/filled.svg

<svg xmlns="http://www.w3.org/2000/svg" width="24" height="24" viewBox="0 0 24 24">
  <path fill-rule="evenodd" d="M20,6 L17,6 L17,3 C17,2.447 16.553,2 16,2 C15.447,2 15,2.447 15,3 L15,6 L12,6 C11.447,6 11,6.447 11,7 C11,7.553 11.447,8 12,8 L15,8 L15,11 C15,11.553 15.447,12 16,12 C16.553,12 17,11.553 17,11 L17,8 L20,8 C20.553,8 21,7.553 21,7 C21,6.447 20.553,6 20,6 M17,14 L17,22 L11,18 L5,22 L5,5 C5,3.282 6.292,2 8,2 L13,2 L13,4 L12,4 C10.343,4 9,5.343 9,7 C9,8.657 10.343,10 12,10 L13,10 C13,12.209 14.791,14 17,14"/>
</svg>

<svg width="24" height="24" fill="none" xmlns="http://www.w3.org/2000/svg">
  <path fill-rule="evenodd" clip-rule="evenodd" d="M20 6h-3V3a1 1 0 10-2 0v3h-3a1 1 0 100 2h3v3a1 1 0 102 0V8h3a1 1 0 100-2zm-3 8v8l-6-4-6 4V5c0-1.718 1.292-3 3-3h5v2h-1a3 3 0 100 6h1a4 4 0 004 4z" fill="#000"/>
</svg>
